X:0861
T:Chapter of Kings.
M:6/8
L:1/8
Q:3/8=120
I: :|
Z:Jack Campin * www.campin.me.uk * 2009
K:D
A   |Add dcd|e2c A2 \
A   |Aee efg|a2f d2 \
a/g/|fga agf|b2g e2
g/f/|efg gfe|a2f d2 \
A   |Add Bee|fdd gee\
    |fga gfe|d3  d2:|
<end>
<start>
